X:450
T:Les Manches Vertes
T:Greensleeves
S:Colin Hume's website,  colinhume.com  - chords can also be printed below the stave.
Q:3/8=120
M:6/8
L:1/8
%%MIDI ratio 3 1
K:F
P:A
|: "Gm"B2B B>cd | "F"c2A F2A | "Eb"B>AG G>AB | "D"A2D D3 |\
"Gm"B2B B>cd | "F"c2A F2A | "Eb"B>AG "D7"A>G^F | "Gm"G3 G3 :|
P:B
|: "Bb"f2f f>_ed | "F"c2A F3 | "Gm"g2g g>ab | "Dm"a2f d3 |\
"Bb"f2f f>_ed | "F"c2A F2A | "Gm"B>AG "D7"A>G^F | "Gm"G3 G3 :|

